svg/transport/wheel_line.svg

<?xml version="1.0" encoding="UTF-8"?>
<svg width="24px" height="24px" viewBox="0 0 24 24" version="1.1" xmlns="http://www.w3.org/2000/svg" xmlns:xlink="http://www.w3.org/1999/xlink">
    <title>wheel_line</title>
    <g id="页面-1" stroke="none" stroke-width="1" fill="none" fill-rule="evenodd">
        <g id="Transport" transform="translate(-624.000000, -192.000000)">
            <g id="wheel_line" transform="translate(624.000000, 192.000000)">
                 <path d="M24,0 L24,24 L0,24 L0,0 L24,0 Z M12.5934901,23.257841 L12.5819402,23.2595131 L12.5108777,23.2950439 L12.4918791,23.2987469 L12.4918791,23.2987469 L12.4767152,23.2950439 L12.4056548,23.2595131 C12.3958229,23.2563662 12.3870493,23.2590235 12.3821421,23.2649074 L12.3780323,23.275831 L12.360941,23.7031097 L12.3658947,23.7234994 L12.3769048,23.7357139 L12.4804777,23.8096931 L12.4953491,23.8136134 L12.4953491,23.8136134 L12.5071152,23.8096931 L12.6106902,23.7357139 L12.6232938,23.7196733 L12.6232938,23.7196733 L12.6266527,23.7031097 L12.609561,23.275831 C12.6075724,23.2657013 12.6010112,23.2592993 12.5934901,23.257841 L12.5934901,23.257841 Z M12.8583906,23.1452862 L12.8445485,23.1473072 L12.6598443,23.2396597 L12.6498822,23.2499052 L12.6498822,23.2499052 L12.6471943,23.2611114 L12.6650943,23.6906389 L12.6699349,23.7034178 L12.6699349,23.7034178 L12.678386,23.7104931 L12.8793402,23.8032389 C12.8914285,23.8068999 12.9022333,23.8029875 12.9078286,23.7952264 L12.9118235,23.7811639 L12.8776777,23.1665331 C12.8752882,23.1545897 12.8674102,23.1470016 12.8583906,23.1452862 L12.8583906,23.1452862 Z M12.1430473,23.1473072 C12.1332178,23.1423925 12.1221763,23.1452606 12.1156365,23.1525954 L12.1099173,23.1665331 L12.0757714,23.7811639 C12.0751323,23.7926639 12.0828099,23.8018602 12.0926481,23.8045676 L12.108256,23.8032389 L12.3092106,23.7104931 L12.3186497,23.7024347 L12.3186497,23.7024347 L12.3225043,23.6906389 L12.340401,23.2611114 L12.337245,23.2485176 L12.337245,23.2485176 L12.3277531,23.2396597 L12.1430473,23.1473072 Z" id="MingCute" fill-rule="nonzero"></path>
                <path d="M12,2 C17.5228,2 22,6.47715 22,12 C22,17.5228 17.5228,22 12,22 C6.47715,22 2,17.5228 2,12 C2,6.47715 6.47715,2 12,2 Z M12,4 C7.58172,4 4,7.58172 4,12 C4,16.4183 7.58172,20 12,20 C16.4183,20 20,16.4183 20,12 C20,7.58172 16.4183,4 12,4 Z M13.568639,14.5616507 L13.6641,14.6934 L14.5101,15.9624 C14.8687,16.5003 15.0785,17.5059 14.2883,18.1963 C13.8178,18.6075 13.0713,19 12,19 C10.9287,19 10.1822,18.6075 9.71169,18.1963 C8.96542778,17.5442556 9.11104275,16.6110605 9.43160926,16.0562463 L9.48985,15.9624 L10.3359,14.6934 C11.0666077,13.5972462 12.6096799,13.5129266 13.4653667,14.4404414 L13.568639,14.5616507 Z M12,15.8028 L11.294,16.8618 C11.4584,16.938 11.6869,17 12,17 C12.2609167,17 12.4630833,16.9569444 12.6183634,16.8984954 L12.706,16.8618 L12,15.8028 Z M18.6003,11.7383 C18.8459,12.3129 18.9885,13.1441 18.6575,14.163 C18.3264,15.1819 17.7225,15.7705 17.186,16.091 C16.2852,16.6291 15.3937,16.1189 14.9929,15.6116 L14.0474,14.4148 C13.1627,13.295 13.7019,11.6355 15.0759,11.2495 L16.5443,10.837 C17.1667,10.6622 18.1878,10.7735 18.6003,11.7383 Z M7.34869227,10.8106973 L7.45594,10.8371 L8.92434,11.2495 C10.24923,11.6217143 10.797921,13.1780886 10.0421765,14.2929285 L9.95281,14.4149 L9.0073,15.6117 C8.60654,16.1189 7.71505,16.6291 6.81421,16.091 C6.27776,15.7705 5.67378,15.1819 5.34273,14.163 C5.01168,13.1442 5.15431,12.3129 5.39995,11.7383 C5.76661667,10.8807 6.61416827,10.6974704 7.23509667,10.7901782 L7.34869227,10.8106973 Z M16.8421,12.8308 L15.6168,13.175 L16.4058,14.1737 C16.5291,14.0408 16.6586,13.8427 16.7554,13.545 C16.8521,13.2472 16.8638,13.0107 16.8421,12.8308 Z M7.15814,12.8308 C7.13648,13.0108 7.1481,13.2472 7.24484,13.545 C7.325465,13.7930833 7.42888861,13.9720694 7.53247773,14.1016921 L7.59447,14.1737 L8.38347,13.175 L7.15814,12.8308 Z M13.7907,5.64212 C14.413,5.58605 15.2477,5.70727 16.1143,6.33696 C16.981,6.96666 17.3542,7.72297 17.4932,8.33219 C17.7136333,9.29839444 17.047354,9.96768707 16.4619669,10.2281101 L16.3597,10.2698 L14.9293,10.7992 C13.6369552,11.2775172 12.2764648,10.3379225 12.235929,8.98900699 L12.2367,8.84296 L12.2982,7.31897 C12.3242,6.67303 12.7456,5.73627 13.7907,5.64212 Z M10.2091,5.64219 C11.2542,5.73634 11.6755,6.6731 11.7016,7.31904 L11.7631,8.84303 C11.8206,10.269 10.4089,11.2947 9.07051,10.7993 L7.6401,10.2699 C7.03383,10.0455 6.27313,9.3553 6.50653,8.33226 C6.64553,7.72304 7.01872,6.96672 7.88542,6.33703 C8.75212,5.70733 9.58675,5.58612 10.2091,5.64219 Z M14.2864,7.65185 L14.2351,8.92357 L15.4287,8.4818 C15.3405,8.32348 15.1921,8.13901 14.9388,7.955 C14.7277167,7.80165 14.5388556,7.71766806 14.3788718,7.67367917 L14.2864,7.65185 Z M9.71341,7.65191 C9.53557,7.68692 9.31427,7.77105 9.06099,7.95506 C8.80772,8.13908 8.65932,8.32355 8.57108,8.48187 L9.7647,8.92364 L9.71341,7.65191 Z" id="形状" fill="#09244B"></path>
            </g>
        </g>
    </g>
</svg>

<svg xmlns="http://www.w3.org/2000/svg" width="24" height="24"><g fill="none" fill-rule="evenodd"><path d="M24 0v24H0V0h24ZM12.593 23.258l-.011.002-.071.035-.02.004-.014-.004-.071-.035c-.01-.004-.019-.001-.024.005l-.004.01-.017.428.005.02.01.013.104.074.015.004.012-.004.104-.074.012-.016.004-.017-.017-.427c-.002-.01-.009-.017-.017-.018Zm.265-.113-.013.002-.185.093-.01.01-.003.011.018.43.005.012.008.007.201.093c.012.004.023 0 .029-.008l.004-.014-.034-.614c-.003-.012-.01-.02-.02-.022Zm-.715.002a.023.023 0 0 0-.027.006l-.006.014-.034.614c0 .012.007.02.017.024l.015-.002.201-.093.01-.008.004-.011.017-.43-.003-.012-.01-.01-.184-.092Z"/><path fill="#09244B" d="M12 2c5.523 0 10 4.477 10 10s-4.477 10-10 10S2 17.523 2 12 6.477 2 12 2Zm0 2a8 8 0 1 0 0 16 8 8 0 0 0 0-16Zm1.569 10.562.095.131.846 1.27c.359.537.569 1.543-.222 2.233-.47.412-1.217.804-2.288.804-1.071 0-1.818-.392-2.288-.804-.747-.652-.601-1.585-.28-2.14l.058-.094.846-1.269a2 2 0 0 1 3.13-.253l.103.122ZM12 15.802l-.706 1.06c.164.076.393.138.706.138.26 0 .463-.043.618-.102l.088-.036-.706-1.06Zm6.6-4.064c.246.575.388 1.406.057 2.425-.33 1.019-.934 1.608-1.471 1.928-.9.538-1.792.028-2.193-.48l-.946-1.196a2 2 0 0 1 1.029-3.165l1.468-.413c.623-.175 1.644-.063 2.056.901ZM7.35 10.811l.107.026 1.468.412a2 2 0 0 1 1.118 3.044l-.09.122-.945 1.197c-.4.507-1.292 1.017-2.193.479-.536-.32-1.14-.91-1.471-1.928-.331-1.019-.189-1.85.057-2.425.367-.857 1.214-1.04 1.835-.948l.114.02Zm9.493 2.02-1.225.344.789.999a1.66 1.66 0 0 0 .35-.629c.096-.298.108-.534.086-.714Zm-9.684 0c-.022.18-.01.416.087.714.08.248.184.427.287.557l.062.072.79-.999-1.226-.344Zm6.633-7.189c.622-.056 1.457.065 2.323.695.867.63 1.24 1.386 1.38 1.995.22.966-.447 1.636-1.032 1.896l-.102.042-1.43.53a2 2 0 0 1-2.694-1.811v-.146l.062-1.524c.026-.646.448-1.583 1.493-1.677Zm-3.582 0c1.045.094 1.467 1.031 1.493 1.677l.061 1.524a2 2 0 0 1-2.692 1.956l-1.43-.53c-.607-.223-1.368-.914-1.134-1.937.139-.609.512-1.365 1.378-1.995.867-.63 1.702-.75 2.324-.695Zm4.077 2.01-.05 1.272 1.193-.442a1.657 1.657 0 0 0-.49-.527 1.742 1.742 0 0 0-.56-.281l-.093-.022Zm-4.573 0c-.177.035-.399.119-.652.303a1.658 1.658 0 0 0-.49.527l1.194.442-.052-1.272Z"/></g></svg>
